icons/git-pull-request-16.svg

<svg xmlns="http://www.w3.org/2000/svg" width="16" height="16" viewBox="0 0 16 16"><path d="M1.5 3.25a2.25 2.25 0 113 2.122v5.256a2.251 2.251 0 11-1.5 0V5.372A2.25 2.25 0 011.5 3.25zm5.677-.177L9.573.677A.25.25 0 0110 .854V2.5h1A2.5 2.5 0 0113.5 5v5.628a2.251 2.251 0 11-1.5 0V5a1 1 0 00-1-1h-1v1.646a.25.25 0 01-.427.177L7.177 3.427a.25.25 0 010-.354zM3.75 2.5a.75.75 0 100 1.5.75.75 0 000-1.5zm0 9.5a.75.75 0 100 1.5.75.75 0 000-1.5zm8.25.75a.75.75 0 101.5 0 .75.75 0 00-1.5 0z"/></svg>

<svg xmlns="http://www.w3.org/2000/svg" width="16" height="16" viewBox="0 0 16 16">
  <defs/>
  <path d="M1.5,3.25 C1.5,2.106 2.359,1.144 3.496,1.015 C4.633,0.886 5.686,1.631 5.943,2.745 C6.199,3.86 5.579,4.991 4.5,5.372 L4.5,10.628 C5.534,10.993 6.154,12.05 5.969,13.131 C5.783,14.211 4.846,15.001 3.75,15.001 C2.654,15.001 1.717,14.211 1.531,13.131 C1.346,12.05 1.966,10.993 3,10.628 L3,5.372 C2.101,5.054 1.5,4.204 1.5,3.25 Z M7.177,3.073 L9.573,0.677 C9.645,0.605 9.752,0.584 9.846,0.623 C9.939,0.661 10,0.753 10,0.854 L10,2.5 L11,2.5 C12.381,2.5 13.5,3.619 13.5,5 L13.5,10.628 C14.534,10.993 15.154,12.05 14.969,13.131 C14.783,14.211 13.846,15.001 12.75,15.001 C11.654,15.001 10.717,14.211 10.531,13.131 C10.346,12.05 10.966,10.993 12,10.628 L12,5 C12,4.448 11.552,4 11,4 L10,4 L10,5.646 C10,5.747 9.939,5.839 9.846,5.877 C9.752,5.916 9.645,5.895 9.573,5.823 L7.177,3.427 C7.13,3.38 7.104,3.316 7.104,3.25 C7.104,3.184 7.13,3.12 7.177,3.073 Z M3.75,2.5 C3.336,2.5 3,2.836 3,3.25 C3,3.664 3.336,4 3.75,4 C4.164,4 4.5,3.664 4.5,3.25 C4.5,2.836 4.164,2.5 3.75,2.5 Z M3.75,12 C3.336,12 3,12.336 3,12.75 C3,13.164 3.336,13.5 3.75,13.5 C4.164,13.5 4.5,13.164 4.5,12.75 C4.5,12.336 4.164,12 3.75,12 Z M12,12.75 C12,13.164 12.336,13.5 12.75,13.5 C13.164,13.5 13.5,13.164 13.5,12.75 C13.5,12.336 13.164,12 12.75,12 C12.336,12 12,12.336 12,12.75 Z"/>
</svg>
